X: 490
T: Cotton Eyed Joe
B: jims roots
M:2/4
L:1/16
Q: 1/4=100
K:G
V:1 
A | "G"Bdd2 d3d | fdef d3d | BAGB AGEG | BAB2 "D"D3 :|
|: E | "G"DEGB AGEF | GABd "C"c2dc | "G"BAGB AGEG | BAB2 "D"D3 :|
% abcbook-tune_id 6298c245d70a1db18071b8f7


% abcbook-boost 0
% abcbook-tablature 
% abcbook-transpose 
% abcbook-lastupdated 1654178373812
% abcbook-soundfonts 
% abcbook-repeats 1


